icons/foot_fill.svg

<svg width="48" height="48" viewBox="0 0 48 48" fill="none" xmlns="http://www.w3.org/2000/svg">
<path fill-rule="evenodd" clip-rule="evenodd" d="M40.451 10C40.451 9.44772 40.0033 9 39.451 9H28.2354C27.6831 9 27.2354 9.44772 27.2354 10V12.0274L26.2378 22.6806C25.3206 24.4368 23.619 25.9762 21.6285 27.2595C19.5934 28.5717 17.3493 29.5567 15.5822 30.1985C14.2292 30.6898 12.895 31.3559 11.7265 32.3067L11.0565 32.8519H7.3336C6.91473 32.8519 6.54024 33.1129 6.39534 33.5059C6.10757 34.2864 5.83523 35.546 6.12145 36.6876C6.27116 37.2848 6.58568 37.8903 7.16803 38.3387C7.74925 38.7861 8.49724 39 9.37277 39C11.9363 39 13.3002 38.8299 14.1364 38.5641C14.5712 38.4259 14.8613 38.2632 15.0935 38.1003C15.1388 38.1264 15.1786 38.152 15.2164 38.1771C15.2357 38.1899 15.2588 38.2059 15.2855 38.2244C15.4201 38.3175 15.6451 38.4731 15.9192 38.5926C16.5814 38.8813 17.5467 39 19.5687 39C21.5337 39 22.8251 38.7627 23.7961 38.3882C24.1043 38.2694 24.3916 38.1518 24.6644 38.0401C25.6091 37.6533 26.3804 37.3376 27.2481 37.2861C28.0377 37.2392 28.9399 37.204 29.7461 37.2166C30.5945 37.2298 31.2015 37.2961 31.4829 37.3915C31.7869 37.4946 32.0545 37.6261 32.3416 37.7833C32.4217 37.8272 32.5108 37.8775 32.6058 37.9311C32.8217 38.053 33.0683 38.1922 33.3078 38.3116C34.0819 38.6976 34.9985 39 36.3922 39C37.548 39 39.1634 38.7119 40.522 37.7906C41.9354 36.8323 43 35.2301 43 32.8148C43 31.0926 42.4725 29.3501 41.8731 27.9395C41.0777 26.0676 40.451 24.2388 40.451 22.3949V10ZM36.5 25C36.5 24.4477 36.0523 24 35.5 24C34.9493 24 34.5025 24.4452 34.5 24.9954L34.4998 25.0067C34.4994 25.0196 34.4986 25.0425 34.4968 25.0745C34.4931 25.1385 34.4853 25.2382 34.4691 25.365C34.4364 25.6202 34.3704 25.9767 34.2388 26.3713C33.9749 27.1632 33.468 28.053 32.4855 28.6425C32.012 28.9267 31.8584 29.5409 32.1425 30.0145C32.4267 30.4881 33.0409 30.6416 33.5145 30.3575C35.0321 29.447 35.7752 28.0868 36.1362 27.0037C36.3172 26.4608 36.4074 25.9735 36.4528 25.6194C36.4756 25.4415 36.4874 25.295 36.4935 25.1892C36.4965 25.1362 36.4982 25.0932 36.499 25.0614C36.4995 25.0454 36.4997 25.0323 36.4999 25.022L36.5 25.0088L36.5 25.0038L36.5 25C36.5 24.9996 36.5 25 35.5 25H36.5Z" fill="black"/>
</svg>

<svg
  xmlns="http://www.w3.org/2000/svg"
  width="24"
  height="24"
  viewBox="0 0 24 24"
  fill="none"
  stroke="currentColor"
  stroke-width="2"
  stroke-linecap="round"
  stroke-linejoin="round"
>
  <path
    fill-rule="evenodd"
    d="M40.451 10a1 1 0 0 0-1-1H28.235a1 1 0 0 0-1 1v2.027l-.997 10.654c-.917 1.756-2.619 3.295-4.61 4.578-2.035 1.313-4.279 2.298-6.046 2.94-1.353.49-2.687 1.157-3.856 2.108l-.67.545H7.335a1 1 0 0 0-.939.654c-.287.78-.56 2.04-.274 3.182.15.597.465 1.202 1.047 1.65S8.498 39 9.373 39c2.563 0 3.927-.17 4.763-.436.435-.138.725-.3.958-.464a2 2 0 0 1 .192.124c.134.094.36.25.633.369.662.288 1.628.407 3.65.407 1.965 0 3.256-.237 4.227-.612q.461-.18.868-.348c.945-.387 1.716-.702 2.584-.754a35 35 0 0 1 2.498-.07c.849.014 1.456.08 1.737.175.304.104.571.235.859.392l.264.148c.216.122.462.261.702.38.774.387 1.69.689 3.084.689 1.156 0 2.771-.288 4.13-1.21C41.935 36.833 43 35.23 43 32.816c0-1.722-.528-3.465-1.127-4.875-.795-1.872-1.422-3.701-1.422-5.545zM36.5 25a1 1 0 0 0-2-.005v.012l-.003.067a5.38 5.38 0 0 1-.258 1.297c-.264.792-.771 1.682-1.754 2.271a1 1 0 0 0 1.03 1.716c1.517-.911 2.26-2.271 2.621-3.354a7.4 7.4 0 0 0 .357-1.815l.006-.128v-.039l.001-.013V25h-1z"
    clip-rule="evenodd"
  />
</svg>
